img/transparency.svg

<svg width="74" height="80" viewBox="0 0 74 80" fill="none" xmlns="http://www.w3.org/2000/svg">
<path d="M47.3334 20C48.2175 20 49.0653 20.3512 49.6904 20.9763C50.3156 21.6014 50.6668 22.4493 50.6668 23.3333C50.6668 24.2174 50.3156 25.0652 49.6904 25.6904C49.0653 26.3155 48.2175 26.6667 47.3334 26.6667H20.6667C19.7827 26.6667 18.9348 26.3155 18.3097 25.6904C17.6846 25.0652 17.3334 24.2174 17.3334 23.3333C17.3334 22.4493 17.6846 21.6014 18.3097 20.9763C18.9348 20.3512 19.7827 20 20.6667 20H47.3334ZM73.0234 79.0233C72.3983 79.6482 71.5506 79.9993 70.6667 79.9993C69.7829 79.9993 68.9352 79.6482 68.3101 79.0233L60.2868 71C57.9107 72.5165 55.1522 73.3258 52.3334 73.3333C49.3667 73.3333 46.4666 72.4536 43.9999 70.8054C41.5331 69.1572 39.6105 66.8145 38.4752 64.0736C37.3399 61.3327 37.0429 58.3167 37.6216 55.407C38.2004 52.4973 39.629 49.8245 41.7268 47.7267C43.8246 45.6289 46.4973 44.2003 49.4071 43.6216C52.3168 43.0428 55.3328 43.3398 58.0737 44.4751C60.8146 45.6105 63.1572 47.533 64.8055 49.9998C66.4537 52.4665 67.3334 55.3666 67.3334 58.3333C67.3259 61.1521 66.5166 63.9106 65.0001 66.2867L73.0234 74.31C73.6483 74.9351 73.9994 75.7828 73.9994 76.6667C73.9994 77.5505 73.6483 78.3982 73.0234 79.0233ZM52.3334 66.6667C53.9816 66.6667 55.5928 66.1779 56.9632 65.2622C58.3336 64.3466 59.4017 63.0451 60.0324 61.5224C60.6631 59.9996 60.8282 58.3241 60.5066 56.7076C60.1851 55.0911 59.3914 53.6062 58.226 52.4408C57.0605 51.2753 55.5757 50.4817 53.9592 50.1601C52.3427 49.8386 50.6671 50.0036 49.1444 50.6343C47.6217 51.2651 46.3202 52.3332 45.4045 53.7036C44.4888 55.074 44.0001 56.6852 44.0001 58.3333C44.0001 60.5435 44.8781 62.6631 46.4409 64.2259C48.0037 65.7887 50.1233 66.6667 52.3334 66.6667ZM37.3334 73.3333H17.3334C14.6813 73.3333 12.1377 72.2798 10.2623 70.4044C8.38698 68.529 7.33342 65.9855 7.33342 63.3333V16.6667C7.33342 14.0145 8.38698 11.471 10.2623 9.5956C12.1377 7.72024 14.6813 6.66667 17.3334 6.66667H57.3334C58.2175 6.66667 59.0653 7.01786 59.6904 7.64298C60.3156 8.2681 60.6668 9.11594 60.6668 10V36.6667C60.6668 37.5507 61.0179 38.3986 61.6431 39.0237C62.2682 39.6488 63.116 40 64.0001 40C64.8841 40 65.732 39.6488 66.3571 39.0237C66.9822 38.3986 67.3334 37.5507 67.3334 36.6667V10C67.3334 7.34784 66.2799 4.8043 64.4045 2.92893C62.5291 1.05357 59.9856 0 57.3334 0L17.3334 0C12.9148 0.00529286 8.67861 1.76294 5.55415 4.8874C2.42969 8.01186 0.672041 12.248 0.666748 16.6667V63.3333C0.672041 67.752 2.42969 71.9881 5.55415 75.1126C8.67861 78.2371 12.9148 79.9947 17.3334 80H37.3334C38.2175 80 39.0653 79.6488 39.6904 79.0237C40.3156 78.3986 40.6667 77.5507 40.6667 76.6667C40.6667 75.7826 40.3156 74.9348 39.6904 74.3096C39.0653 73.6845 38.2175 73.3333 37.3334 73.3333Z" fill="#EFBE4C"/>
</svg>

<svg width="74" height="80" fill="none" xmlns="http://www.w3.org/2000/svg"><path d="M47.333 20a3.333 3.333 0 110 6.667H20.667a3.333 3.333 0 010-6.667h26.666zm25.69 59.023a3.333 3.333 0 01-4.713 0L60.287 71a14.857 14.857 0 01-7.954 2.333 15 15 0 1115-15A14.857 14.857 0 0165 66.287l8.023 8.023a3.333 3.333 0 010 4.713zm-20.69-12.356a8.333 8.333 0 100-16.667 8.333 8.333 0 000 16.667zm-15 6.666h-20a10 10 0 01-10-10V16.667a10 10 0 0110-10h40A3.333 3.333 0 0160.667 10v26.667a3.333 3.333 0 106.666 0V10a10 10 0 00-10-10h-40A16.687 16.687 0 00.667 16.667v46.666A16.687 16.687 0 0017.333 80h20a3.333 3.333 0 100-6.667z" fill="#EFBE4C"/></svg>
